www/assets/icons/add_moderator.svg

<svg xmlns="http://www.w3.org/2000/svg" width="24" height="24" viewBox="0 0 24 24" fill='currentColor'><path d="M12.72 22.61c-.4.15-.8.29-1.22.39-5.16-1.26-9-6.45-9-12V5l9-4 9 4v6c0 .9-.11 1.78-.3 2.65-.81-.41-1.73-.65-2.7-.65-3.31 0-6 2.69-6 6 0 1.36.46 2.61 1.22 3.61M18.5 20v2.99s-1.99.01-2 0V20h-3v-2h3v-3h2v3h3v2z"/></svg>

<svg width="24" height="24" viewBox="0 0 24 24" xmlns="http://www.w3.org/2000/svg" fill='currentColor'><path d="M12.72 22.61C12.32 22.76 11.92 22.9 11.5 23C6.34 21.74 2.5 16.55 2.5 11V5L11.5 1L20.5 5V11C20.5 11.9 20.39 12.78 20.2 13.65C19.39 13.24 18.47 13 17.5 13C14.19 13 11.5 15.69 11.5 19C11.5 20.36 11.96 21.61 12.72 22.61ZM18.5 20V22.99C18.5 22.99 16.51 23 16.5 22.99V20H13.5V18H16.5V15H18.5V18H21.5V20H18.5Z"/></svg>
